src/assets/icons/camera.svg

<svg width="14" height="14" viewBox="0 0 14 14" fill="none" xmlns="http://www.w3.org/2000/svg">
<g id="camera">
<path id="Vector" fill-rule="evenodd" clip-rule="evenodd" d="M4.6286 2.84278C4.81156 2.56587 5.1259 2.40001 5.45601 2.40001H8.54399C8.88044 2.40001 9.18753 2.5645 9.3714 2.84278L9.37139 2.84278L9.37313 2.84539L10.5011 4.53338C10.6125 4.69998 10.7996 4.80001 11 4.80001H11.8C12.3486 4.80001 12.8 5.25138 12.8 5.80001V10.6C12.8 11.1486 12.3486 11.6 11.8 11.6H2.2C1.65137 11.6 1.2 11.1486 1.2 10.6V5.80001C1.2 5.25138 1.65137 4.80001 2.2 4.80001H3C3.20038 4.80001 3.38753 4.69998 3.49886 4.53338L4.62687 2.84539L4.62687 2.8454L4.6286 2.84278ZM5.45601 1.20001C4.73067 1.20001 4.03751 1.56162 3.62834 2.17984L2.67931 3.60001H2.2C0.988629 3.60001 0 4.58864 0 5.80001V10.6C0 11.8114 0.988629 12.8 2.2 12.8H11.8C13.0114 12.8 14 11.8114 14 10.6V5.80001C14 4.58864 13.0114 3.60001 11.8 3.60001H11.3207L10.3726 2.18127L10.3717 2.17985C9.96341 1.56299 9.27898 1.20001 8.54399 1.20001H5.45601ZM5.6 7.80001C5.6 7.02681 6.2268 6.40001 7 6.40001C7.7732 6.40001 8.4 7.02681 8.4 7.80001C8.4 8.57321 7.7732 9.20001 7 9.20001C6.2268 9.20001 5.6 8.57321 5.6 7.80001ZM7 5.20001C5.56406 5.20001 4.4 6.36407 4.4 7.80001C4.4 9.23595 5.56406 10.4 7 10.4C8.43594 10.4 9.6 9.23595 9.6 7.80001C9.6 6.36407 8.43594 5.20001 7 5.20001Z" fill="black"/>
</g>
</svg>

<svg xmlns="http://www.w3.org/2000/svg" fill="none" viewBox="0 0 14 14"><path fill="#000" fill-rule="evenodd" d="M4.629 2.843a1 1 0 0 1 .827-.443h3.088c.336 0 .644.164.827.443l.002.002 1.128 1.688A.6.6 0 0 0 11 4.8h.8c.549 0 1 .451 1 1v4.8c0 .549-.451 1-1 1H2.2c-.549 0-1-.451-1-1V5.8c0-.549.451-1 1-1H3a.6.6 0 0 0 .499-.267l1.128-1.688zM5.456 1.2c-.725 0-1.418.362-1.828.98L2.68 3.6H2.2C.989 3.6 0 4.589 0 5.8v4.8c0 1.211.989 2.2 2.2 2.2h9.6c1.211 0 2.2-.989 2.2-2.2V5.8c0-1.211-.989-2.2-2.2-2.2h-.48l-.947-1.419-.001-.001a2.19 2.19 0 0 0-1.828-.98zM5.6 7.8a1.4 1.4 0 1 1 2.8 0 1.4 1.4 0 0 1-2.8 0M7 5.2a2.6 2.6 0 1 0 0 5.2 2.6 2.6 0 0 0 0-5.2" clip-rule="evenodd"/></svg>
